!!!OTL: 493. Jn der Ferne.
!!!COM: F. Silcher
!!!ODT: 1853
!!!ARE: Europa, Mitteleuropa, Deutschland
!!!SCT: B0493
!!!TXL: @@DE
!!!YEM: Copyright 1995, estate of Helmut Schaffrath.
**kern	**text
*ICvox	*
*Ivox	*
*clefG2	*
*M3/4	*
*k[f#c#g#]	*
*A:	*
!LO:TX:a:t=Innig.	!
{8a	Nun
8b	leb'
=1	=1
4.cc#	wohl,
8a	du
8a	klei-
8f#	-ne
=2	=2
8.f#L	Gaſ-
16eJ	.
4e}	-ſe,
{8e	nun
8a	leb'
=3	=3
4.b	wohl,
8a	du
8dd	ſtil-
8cc#	-les
=4	=4
4b	Dach!
4r}	.
{8.b	Va-
16f#	-ter,
=5	=5
8.aL	Mut-
16g#J	.
4g#	-ter
8.b	ſahn
16f#	mir
=6	=6
8.aL	trau-
16g#J	.
4g#	-rig,
4r}	.
=7	=7
{8.a	und
16e	die
8g#q	.
8f#	Lieb-
8e	-ſte
8a	ſah
8b	mir
=8	=8
(4cc#	nach
4ee	.
4dd)}	,
=9	=9
{8.cc#	und
16cc#	die
8cc#	Lieb-
8e	-ſte
8.cc#	ſah
16b	mir
=10	=10
2a;}	nach.
==	==
!!!AGN: Abschieds - Lied
!!!GTL: Abschiedslieder
!!!ONB: ESAC (Essen Associative Code) Database: BOEHME
!!!AMT: simple triple
!!!AIN: vox
!!!EED: Helmut Schaffrath
!!!EEV: 1.0
!!@@COMMENT:"Text von Albert Graf Schlippenbach 1833. Ʒuerſt in Kugler und Reinick, Ldb. für Künſtler
!!1833 S. 150. Melodie von Silcher (Volksl. 11. Heft Nr. 4 um 1853-55). - Der Dichter ſang
!!ſein Lied nach der Melodie: "So viel Stern' am Himmel ſtehen"."
!!@@END:
!!!Text: Albert Graf Schlippenbach
!!!URL-scan: https://archive.org/details/BoehmeVtLieder1895/page/n395/mode/2up
!!!ENC: Anna Maria Matuszewska
!!!EEV: 2024/10/07
*-	*-
